X:16
T:Denis Murphy's
Z: id:dc-polka-13
M:2/4
L:1/8
K:A Major
ef/e/ ce|Ae ce|f/g/a/f/ ec|BA F2|!
ef/e/ ce|Ae ce|f/g/a/f/ ec|BA A2:|!
ce fa/f/|ec BA|ce fa/f/|ec B2|!
ce fa/f/|ec BA|ef/e/ cB|BA A2:|!


DG B/A/G/A/|BE EG/E/|DG B/A/G/B/|dB Bd|!
e/f/g/e/ dB|c/B/A/G/ AB|DG B/A/G/A/|BG G2:|!
dB/d/ gg|e/f/g/e/ dB|dB/d/ gg|ef g2|!
e/f/g/e/ dB|c/B/A/G/ AB|DG B/A/G/A/|BG G2:|!


B>c Bc|dB Bd|cA Ac|d/c/B/A/ BF|!
B>c Bc|dB B2|e2 dc|BA B2:|!
f2 df|ec cd|ef/e/ dc|Bc dB|!
f2 df|ec cd|ef/e/ dc|BA B2:|!

d/B/|Ad Bd/B/|AD FA|GE BE|A>G FD|!
Ad Bd/B/|AD FA|[1 GE e>f|ed d:|[2 GE A>G|FD D|]!
d/B/|Ad fe/f/|g>f ed|cA eA|eA cA|!
Ad fe/f/|g>f ed|cA Bc|d2 d:|!

B/|c2 c>B|AF F2|EA AB|cB B2|!
c2 c>B|AF F2|Ee ec|BA A3/2:|!
B/|cA BA|cA BA|ce ec|BA B2|!
cA BA|cA BA|ce ec|BA A3/2:|!


eA eA|e/f/e/d/ cA|d2 d/e/f/g/|ae fe|!
eA eA|e/f/e/d/ cA|d2 c2|B/A/B/c/ A2:|!
ae f/e/c/e/|ae f/e/c/e/|d2 d/e/f/g/|ae fe|!
ae f/e/c/e/|ae f/e/c/e/|d2 c2|B/A/B/c/ A2:|!


g/f/|ed BA|BG ED|GG G/A/B/c/|d2 Bg/f/|!
ed BA|BG E>G|FA DE/F/|G2 G:|!
G/A/|Bd ef|gd BG|Bd ef|g2 fg/f/|!
ed BA|BG E>G|FA DE/F/|G2 G:|!


ef/e/ ce|fe Bc|A>B cA|ec B2|!
ef/e/ ce|fe Bc|A>B cA|FA E2:|!
F>B AF|cB A2|ef/e/ ce|ag f2|!
ef/e/ ce|fe Bc|A>B cA|FA E2:|!

